X: 37087
T: Silver Tassie, The
R: barndance
M: 4/4
K: Dmajor
M:3/4
DD>F|A3 BA>B|d3 ef>g|f>e dB AD|F E2
DD>F|A3 BA>B|d3 efd|gf ed B>A|B d2||
df>e|d3 BAF|E3 FD>F|A3 de>A|f e2
df>e|d3 BAF|A3 efd|gf ed B>A|B d2||

